app/dist/common/images/uniper-se-na-o-n.svg

<svg height="18" viewBox="0 0 18 18" width="18" xmlns="http://www.w3.org/2000/svg"><path d="m0 0h18v18h-18z" fill="#0078dc"/><path d="m11.93 6h-2.53v8h2v-2.39h.53c1.98 0 3.07-.95 3.07-2.84 0-1.84-1.1-2.77-3.07-2.77zm-.1 4h-.43v-2.5h.42c.84 0 1.18.32 1.18 1.27 0 1-.34 1.23-1.18 1.23zm-3.33-4h-2v4.41h-.71c-.59 0-.79-.2-.79-.95v-3.46h-2v3.46c0 1.75.83 2.54 2.66 2.54h2.84z" fill="#fff"/></svg>

<!-- by TradingView --><svg width="18" height="18" viewBox="0 0 18 18" xmlns="http://www.w3.org/2000/svg"><path fill="#0078DC" d="M0 0h18v18H0z"/><path d="M11.93 6H9.4v8h2v-2.39h.53c1.98 0 3.07-.95 3.07-2.84C15 6.93 13.9 6 11.93 6Zm-.1 4h-.43V7.5h.42c.84 0 1.18.32 1.18 1.27 0 1-.34 1.23-1.18 1.23ZM8.5 6h-2v4.41h-.71c-.59 0-.79-.2-.79-.95V6H3v3.46C3 11.21 3.83 12 5.66 12H8.5V6Z" fill="#fff"/></svg>
